icons/stop-16.svg

<svg xmlns="http://www.w3.org/2000/svg" width="16" height="16" viewBox="0 0 16 16">
  <defs/>
  <path d="M4.47,0.22 C4.611,0.079 4.801,0 5,0 L11,0 C11.199,0 11.389,0.079 11.53,0.22 L15.78,4.47 C15.921,4.61 16,4.801 16,5 L16,11 C16,11.199 15.921,11.389 15.78,11.53 L11.53,15.78 C11.389,15.921 11.199,16 11,16 L5,16 C4.801,16 4.611,15.921 4.47,15.78 L0.22,11.53 C0.079,11.389 0,11.199 0,11 L0,5 C0,4.801 0.079,4.611 0.22,4.47 Z M5.31,1.5 L1.5,5.31 L1.5,10.69 L5.31,14.5 L10.69,14.5 L14.5,10.69 L14.5,5.31 L10.69,1.5 Z M8,4 C8.414,4 8.75,4.336 8.75,4.75 L8.75,8.25 C8.75,8.664 8.414,9 8,9 C7.586,9 7.25,8.664 7.25,8.25 L7.25,4.75 C7.25,4.336 7.586,4 8,4 Z M8,12 C7.448,12 7,11.552 7,11 C7,10.448 7.448,10 8,10 C8.552,10 9,10.448 9,11 C9,11.552 8.552,12 8,12 Z"/>
</svg>

<svg xmlns="http://www.w3.org/2000/svg" width="16" height="16" viewBox="0 0 16 16"><path fill-rule="evenodd" d="M4.47.22A.75.75 0 015 0h6a.75.75 0 01.53.22l4.25 4.25c.141.14.22.331.22.53v6a.75.75 0 01-.22.53l-4.25 4.25A.75.75 0 0111 16H5a.75.75 0 01-.53-.22L.22 11.53A.75.75 0 010 11V5a.75.75 0 01.22-.53L4.47.22zm.84 1.28L1.5 5.31v5.38l3.81 3.81h5.38l3.81-3.81V5.31L10.69 1.5H5.31zM8 4a.75.75 0 01.75.75v3.5a.75.75 0 01-1.5 0v-3.5A.75.75 0 018 4zm0 8a1 1 0 100-2 1 1 0 000 2z"/></svg>
